X:5122
T:Grattan Street
M:6/8
R:Jig
L:1/8
Q:180
C:Aidan Crossey
K:DDor
|:DFD d2d|DFD c2c|DFD B2B|GAB GFD|
DFD d2d|DFD c2c|DFD B2B|AGF d3:||
|:dcd e2d|f2d e2A|dcd e2d|fag fed|
dcd e2d|f2d e2A|ABA GEA|DED D3:||
